packages/kaspersky-hexa-ui-icons/src/iconsSVGs/24/License1.svg

<svg width="24" height="24" viewBox="0 0 24 24" fill="none" xmlns="http://www.w3.org/2000/svg">
<path d="M8 7C8 6.44772 8.44772 6 9 6H15C15.5523 6 16 6.44772 16 7C16 7.55228 15.5523 8 15 8H9C8.44772 8 8 7.55228 8 7Z" fill="black"/>
<path d="M8 10C8 9.44772 8.44772 9 9 9H13C13.5523 9 14 9.44772 14 10C14 10.5523 13.5523 11 13 11H9C8.44772 11 8 10.5523 8 10Z" fill="black"/>
<path d="M8 14C8 13.4477 8.44772 13 9 13H10C10.5523 13 11 13.4477 11 14C11 14.5523 10.5523 15 10 15H9C8.44772 15 8 14.5523 8 14Z" fill="black"/>
<path d="M15 19C16.1046 19 17 18.1046 17 17C17 15.8954 16.1046 15 15 15C13.8954 15 13 15.8954 13 17C13 18.1046 13.8954 19 15 19Z" fill="black"/>
<path fill-rule="evenodd" clip-rule="evenodd" d="M4 5C4 3.34315 5.34315 2 7 2H17C18.6569 2 20 3.34315 20 5V19C20 20.6569 18.6569 22 17 22H7C5.34315 22 4 20.6569 4 19V5ZM7 4C6.44772 4 6 4.44772 6 5V19C6 19.5523 6.44772 20 7 20H17C17.5523 20 18 19.5523 18 19V5C18 4.44772 17.5523 4 17 4H7Z" fill="black"/>
</svg>

<svg xmlns="http://www.w3.org/2000/svg" width="24" height="24" fill="none" viewBox="0 0 24 24"><path fill="#000" d="M8 7c0-.552.448-1 1-1h6c.552 0 1 .448 1 1s-.448 1-1 1H9c-.552 0-1-.448-1-1m0 3c0-.552.448-1 1-1h4c.552 0 1 .448 1 1s-.448 1-1 1H9c-.552 0-1-.448-1-1m0 4c0-.552.448-1 1-1h1c.552 0 1 .448 1 1s-.448 1-1 1H9c-.552 0-1-.448-1-1m7 5c1.105 0 2-.895 2-2s-.895-2-2-2-2 .895-2 2 .895 2 2 2"/><path fill="#000" fill-rule="evenodd" d="M4 5c0-1.6568 1.3431-3 3-3h10c1.6569 0 3 1.3432 3 3v14c0 1.6569-1.3431 3-3 3H7c-1.6569 0-3-1.3431-3-3zm3-1c-.5523 0-1 .4477-1 1v14c0 .5523.4477 1 1 1h10c.5523 0 1-.4477 1-1V5c0-.5523-.4477-1-1-1z" clip-rule="evenodd"/></svg>
